src/assets/img/git.svg

<svg width="60" height="60" viewBox="0 0 60 60" fill="none" xmlns="http://www.w3.org/2000/svg">
<path d="M58.8784 27.3573L32.6468 1.12561C31.146 -0.375204 28.6663 -0.375204 27.1655 1.12561L21.7495 6.5416L28.6663 13.4584C30.2977 12.9364 32.1247 13.2626 33.3646 14.5677C34.6696 15.8728 34.9959 17.6998 34.4739 19.3312L41.1296 25.987C42.761 25.4649 44.588 25.7912 45.8931 27.0963C47.7202 28.8581 47.7202 31.7945 45.8931 33.6215C44.066 35.4486 41.1949 35.4486 39.3678 33.6215C37.9975 32.2512 37.6712 30.2936 38.389 28.5971L32.19 22.398V38.7113C32.6468 38.907 33.0383 39.2333 33.4298 39.5595C35.2569 41.3214 35.2569 44.2578 33.4298 46.0848C31.6027 47.8467 28.7316 47.8467 26.9045 46.0848C25.0774 44.2578 25.0774 41.3866 26.9045 39.5595C27.3613 39.1028 27.8833 38.7765 28.4053 38.5808V22.0718C27.8833 21.876 27.3613 21.4845 26.9045 21.093C25.5342 19.7227 25.2079 17.7651 25.9257 16.0685L19.0742 9.28222L1.12964 27.2268C-0.371176 28.7276 -0.371176 31.2072 1.12964 32.708L27.296 58.8744C28.7969 60.3752 31.2765 60.3752 32.7773 58.8744L58.8132 32.8385C60.3792 31.2724 60.3792 28.8581 58.8784 27.3573Z" fill="#930f50"/>
</svg>

<svg width="60" height="60" fill="none" xmlns="http://www.w3.org/2000/svg"><path d="M58.878 27.357 32.647 1.126c-1.501-1.501-3.98-1.501-5.481 0L21.75 6.542l6.916 6.916c1.632-.522 3.459-.195 4.699 1.11 1.305 1.305 1.63 3.132 1.109 4.763l6.656 6.656c1.631-.522 3.458-.196 4.763 1.11 1.827 1.761 1.827 4.697 0 6.524-1.827 1.828-4.698 1.828-6.525 0-1.37-1.37-1.697-3.327-.979-5.024l-6.199-6.199v16.313c.457.196.848.522 1.24.849 1.827 1.761 1.827 4.698 0 6.525a4.689 4.689 0 0 1-6.526 0c-1.827-1.827-1.827-4.698 0-6.526a4.251 4.251 0 0 1 1.501-.978V22.07c-.522-.195-1.044-.587-1.5-.978-1.37-1.37-1.697-3.328-.98-5.024l-6.85-6.787L1.13 27.227c-1.501 1.5-1.501 3.98 0 5.481l26.166 26.166c1.5 1.501 3.98 1.501 5.481 0L58.813 32.84c1.566-1.567 1.566-3.98.065-5.482Z" fill="#930f50"/></svg>
